src/objects/clothing/1F48D.svg

<svg id="emoji" viewBox="0 0 72 72" xmlns="http://www.w3.org/2000/svg">
  <g id="grid">
    <path fill="#b3b3b3" d="M68,4V68H4V4H68m4-4H0V72H72V0Z"/>
    <path fill="none" stroke="#00a5ff" stroke-miterlimit="10" stroke-width="0.1" d="M12.923,10.9583H59.0769A1.9231,1.9231,0,0,1,61,12.8814V59.0352a1.9231,1.9231,0,0,1-1.9231,1.9231H12.9231A1.9231,1.9231,0,0,1,11,59.0352V12.8813A1.923,1.923,0,0,1,12.923,10.9583Z"/>
    <rect x="16" y="4" rx="2.2537" width="40" height="64" fill="none" stroke="#00a5ff" stroke-miterlimit="10" stroke-width="0.1"/>
    <rect x="16" y="4" rx="2.2537" width="40" height="64" transform="translate(72) rotate(90)" fill="none" stroke="#00a5ff" stroke-miterlimit="10" stroke-width="0.1"/>
    <circle cx="36" cy="36" r="29" fill="none" stroke="#00a5ff" stroke-miterlimit="10" stroke-width="0.1"/>
  </g>
  <g id="color">
    <path fill="#D0CFCE" stroke="none" d="M37.625,25.0417c8.7995,0,15.9583,7.1589,15.9583,15.9583S46.4245,56.9583,37.625,56.9583 c-8.7995,0-15.9583-7.1589-15.9583-15.9583S28.8255,25.0417,37.625,25.0417 M37.625,21.0417 c-11.0227,0-19.9583,8.9357-19.9583,19.9583s8.9356,19.9583,19.9583,19.9583S57.5833,52.0227,57.5833,41 S48.6477,21.0417,37.625,21.0417L37.625,21.0417z"/>
    <polygon fill="#61B2E4" stroke="none" stroke-linecap="round" stroke-linejoin="round" stroke-miterlimit="10" stroke-width="2" points="41.3137,17 33.6463,17 32.6463,11.9568 42.3137,11.9568"/>
  </g>
  <g id="hair"/>
  <g id="skin"/>
  <g id="skin-shadow"/>
  <g id="line">
    <circle cx="37.625" cy="41" r="19.9583" fill="none" stroke="#000000" stroke-linecap="round" stroke-linejoin="round" stroke-miterlimit="10" stroke-width="2"/>
    <line x1="27.9329" x2="31.1832" y1="11.9583" y2="18.4279" fill="none" stroke="#000000" stroke-linecap="round" stroke-linejoin="round" stroke-miterlimit="10" stroke-width="2"/>
    <line x1="46.8751" x2="43.6249" y1="11.9568" y2="18.4264" fill="none" stroke="#000000" stroke-linecap="round" stroke-linejoin="round" stroke-miterlimit="10" stroke-width="2"/>
    <polygon fill="none" stroke="#000000" stroke-linecap="round" stroke-linejoin="round" stroke-miterlimit="10" stroke-width="2" points="41.3137,17 33.6463,17 32.6463,11.9568 42.3137,11.9568"/>
  </g>
</svg>

<svg viewBox="0 0 72 72" xmlns="http://www.w3.org/2000/svg"><path fill="#b3b3b3" d="M68 4v64H4V4h64m4-4H0v72h72V0z"/><path fill="none" stroke="#00a5ff" stroke-miterlimit="10" stroke-width=".1" d="M12.923 10.958h46.154A1.923 1.923 0 0161 12.881v46.154a1.923 1.923 0 01-1.923 1.923H12.923A1.923 1.923 0 0111 59.035V12.881a1.923 1.923 0 011.923-1.923z"/><rect x="16" y="4" rx="2.254" width="40" height="64" fill="none" stroke="#00a5ff" stroke-miterlimit="10" stroke-width=".1"/><rect x="16" y="4" rx="2.254" width="40" height="64" transform="rotate(90 36 36)" fill="none" stroke="#00a5ff" stroke-miterlimit="10" stroke-width=".1"/><circle cx="36" cy="36" r="29" fill="none" stroke="#00a5ff" stroke-miterlimit="10" stroke-width=".1"/><g stroke-linecap="round" stroke-miterlimit="10" stroke-width="6" stroke="#fff" fill="none" stroke-linejoin="round"><circle cx="37.625" cy="41" r="19.958"/><path d="M27.933 11.958l3.25 6.47m15.692-6.471l-3.25 6.469M41.314 17h-7.668l-1-5.043h9.668z"/></g><path fill="#D0CFCE" d="M37.625 25.042c8.8 0 15.958 7.159 15.958 15.958s-7.158 15.958-15.958 15.958S21.667 49.8 21.667 41s7.159-15.958 15.958-15.958m0-4c-11.023 0-19.958 8.935-19.958 19.958s8.935 19.958 19.958 19.958S57.583 52.023 57.583 41s-8.935-19.958-19.958-19.958z"/><path fill="#61B2E4" d="M41.314 17h-7.668l-1-5.043h9.668z"/><g fill="none" stroke="#000" stroke-linecap="round" stroke-linejoin="round" stroke-miterlimit="10" stroke-width="2"><circle cx="37.625" cy="41" r="19.958"/><path d="M27.933 11.958l3.25 6.47m15.692-6.471l-3.25 6.469M41.314 17h-7.668l-1-5.043h9.668z"/></g></svg>
